Papirus/32x32/apps/preferences-desktop-locale.svg

<svg xmlns="http://www.w3.org/2000/svg" width="32" height="32" version="1">
 <path fill="#e4e4e4" d="m20.989 10 0.0072 19h-17.493c-1.4998 0-1.507-1.256-1.507-1.256v-16.244s0-1.5 1.5-1.5z"/>
 <path fill="#fff" opacity=".1" d="m3.4102 10c-1.5 0-1.5 1.5-1.5 1.5l0.0059 0.94922c0.0042-0.145 0.0755-1.449 1.4941-1.449h17.586v-1z"/>
 <path opacity=".2" d="m9.6677 14.381c0.4127 0.28573 0.79365 0.63493 1.1429 1.0476l-0.619 0.761c-0.3814-0.476-0.7783-0.873-1.191-1.19l0.6667-0.619m0 3c0.38095 0.28573 0.74602 0.60318 1.0952 0.95238l-0.61904 0.80952c-0.3493-0.445-0.7303-0.826-1.143-1.143l0.6667-0.619m0.19048 3.2857 0.76191 0.52382c-0.381 1.301-0.9364 2.555-1.6666 3.761l-0.8095-0.619c0.73016-1.1746 1.3016-2.3968 1.7143-3.6667m2.2378-6.666 0.90476 0.19047c-0.0635 0.31748-0.15873 0.61906-0.28571 0.90477h3.7143v0.85713h-4.0952l-0.42857 0.71429c-0.12699 0.25397-0.33334 0.52382-0.61904 0.80952l-0.57144-0.66665c0.60318-0.73015 1.0635-1.6667 1.381-2.8095m-0.23809 2.9524h4.381c-0.00002 0.98413-0.0159 1.9048-0.0477 2.7619h0.61904v0.85715h-0.66666c-0.0635 0.66667-0.11112 1.3175-0.14285 1.9524h0.71428v0.80953h-0.80952c-0.127 1.111-0.572 1.667-1.334 1.667-0.19048 0-0.46032-0.0318-0.80952-0.0952l-0.14286-0.80952c0.41269 0.0634 0.73016 0.0952 0.95238 0.0952s0.36507-0.28572 0.42858-0.85715h-3.7143c0.12698-0.85715 0.23809-1.7778 0.33333-2.7619h-0.66666v-0.85715h0.7619c0.0635-0.88889 0.11111-1.8095 0.14286-2.7619m0.71428 2.7619h2.7143c0.0318-0.66666 0.0477-1.3174 0.0477-1.9524h-2.619c-0.0318 0.69842-0.0794 1.3492-0.14286 1.9524m1.192-1.714c0.3492 0.22222 0.66667 0.47619 0.95239 0.7619l-0.57143 0.71428c-0.28572-0.31745-0.60319-0.60316-0.95238-0.85714l0.571-0.619m1.3333 4.5238c0.0635-0.66666 0.1111-1.3175 0.14286-1.9524h-2.7143c-0.0635 0.6984-0.14286 1.3492-0.23809 1.9524h2.8095m-1.4762-1.7143c0.38094 0.22222 0.73015 0.47619 1.0476 0.7619l-0.61905 0.71429c-0.31746-0.34921-0.6508-0.65079-1-0.90476l0.57143-0.57143m-5-5.6667v7.4762h-0.85714v-0.80952h-0.80952v1.2381h-0.85714v-7.9048h2.5238m-1.6667 5.8571h0.80952v-5.0476h-0.80952v5.0476"/>
 <path opacity=".2" d="m1.9961 27.744v1s0.0078 1.256 1.5078 1.256h17.492v-1h-17.492c-1.5001 0-1.5079-1.256-1.5079-1.256z"/>
 <path fill="#a3a3a3" d="m20.996 10-10-9v19l10 9z"/>
 <path fill="#2095f2" d="m10.996 1v19h17.5c1.5 0 1.5072-1.2565 1.5072-1.2565l-0.007-16.244s0-1.5-1.5-1.5z"/>
 <path opacity=".2" d="m19.277 12.445 0.26994-1.0123c0.30368-1.0966 0.59049-2.3788 0.86043-3.543h0.0675c0.28681 1.1472 0.59049 2.4463 0.89418 3.543l0.25306 1.0123h-2.3451m3.527 4.555h2.6319l-3.4417-11h-2.9862l-3.4417 11h2.5307l0.67485-2.615h3.3574l0.675 2.615"/>
 <path fill="#fff" d="m19.277 11.445 0.26994-1.0123c0.30368-1.0966 0.59049-2.3788 0.86043-3.543h0.0675c0.28681 1.1472 0.59049 2.4463 0.89418 3.543l0.25306 1.0123h-2.3451m3.527 4.555h2.6319l-3.4417-11h-2.9862l-3.4417 11h2.5307l0.67485-2.615h3.3574l0.675 2.615"/>
 <path fill="#fff" opacity=".1" d="m10.996 1v1h17.5c1.5 0 1.5 1.5 1.5 1.5v-1s0-1.5-1.5-1.5h-17.5z"/>
 <path opacity=".2" d="m30.004 18.748c0 0.012-0.015 1.252-1.508 1.252h-17.5v1h17.5c1.5 0 1.508-1.256 1.508-1.256v-0.996z"/>
</svg>

<svg xmlns="http://www.w3.org/2000/svg" width="32" height="32" version="1">
 <path style="opacity:0.2" d="M 21,11 V 30 H 3.5 C 2.669,30 2,29.331 2,28.5 V 12.5 C 2,11.669 2.669,11 3.5,11 Z"/>
 <path style="fill:#e4e4e4" d="M 21,10 V 29 H 3.5 C 2.669,29 2,28.331 2,27.5 V 11.5 C 2,10.669 2.669,10 3.5,10 Z"/>
 <path style="opacity:0.2;fill:#ffffff" d="M 3.5,10 C 2.669,10 2,10.669 2,11.5 V 12.5 C 2,11.669 2.669,11 3.5,11 H 21 V 10 Z"/>
 <path style="opacity:0.2" d="M 9.6677,14.381 C 10.08,14.667 10.461,15.016 10.811,15.429 L 10.192,16.19 C 9.8102,15.714 9.4133,15.317 9.0006,15 L 9.6673,14.381 M 9.6673,17.381 C 10.048,17.666 10.413,17.984 10.763,18.333 L 10.143,19.143 C 9.7942,18.698 9.4132,18.317 9.0005,18 L 9.6672,17.381 M 9.8576,20.666 10.62,21.19 C 10.239,22.491 9.6832,23.745 8.953,24.951 L 8.1435,24.332 C 8.8736,23.157 9.4451,21.935 9.8578,20.665 M 12.096,13.999 13,14.19 C 12.937,14.507 12.842,14.809 12.715,15.095 H 16.429 V 15.952 H 12.334 L 11.905,16.666 C 11.778,16.92 11.572,17.19 11.286,17.475 L 10.715,16.809 C 11.318,16.079 11.778,15.142 12.096,13.999 M 11.858,16.952 H 16.239 C 16.239,17.936 16.223,18.857 16.191,19.714 H 16.81 V 20.571 H 16.143 C 16.08,21.237 16.032,21.888 16,22.523 H 16.715 V 23.333 H 15.905 C 15.778,24.444 15.333,25 14.571,25 14.381,25 14.111,24.968 13.762,24.905 L 13.619,24.095 C 14.031,24.158 14.349,24.19 14.571,24.19 14.793,24.19 14.936,23.904 15,23.333 H 11.285 C 11.412,22.476 11.524,21.555 11.619,20.571 H 10.952 V 19.714 H 11.714 C 11.778,18.825 11.825,17.905 11.857,16.952 M 12.571,19.714 H 15.285 C 15.317,19.047 15.333,18.397 15.333,17.762 H 12.714 C 12.682,18.46 12.635,19.111 12.571,19.714 M 13.763,18 C 14.112,18.222 14.43,18.476 14.716,18.762 L 14.144,19.476 C 13.859,19.159 13.541,18.873 13.192,18.619 L 13.763,18 M 15.096,22.524 C 15.16,21.857 15.207,21.206 15.239,20.571 H 12.525 C 12.461,21.27 12.382,21.921 12.287,22.524 H 15.096 M 13.62,20.81 C 14.001,21.032 14.35,21.286 14.668,21.571 L 14.048,22.286 C 13.731,21.937 13.398,21.635 13.048,21.381 L 13.62,20.81 M 8.6199,15.143 V 22.619 H 7.7628 V 21.81 H 6.9533 V 23.048 H 6.0961 V 15.143 H 8.6199 M 6.9532,21 H 7.7627 V 15.952 H 6.9532 V 21"/>
 <path style="fill:#a3a3a3" d="M 21,10 11,1 V 20 L 21,29 Z"/>
 <path style="opacity:0.2" d="M 11,2 V 21 H 28.5 C 29.331,21 30,20.331 30,19.5 V 3.5 C 30,2.669 29.331,2 28.5,2 Z"/>
 <path style="fill:#2095f2" d="M 11,1 V 20 H 28.5 C 29.331,20 30,19.331 30,18.5 V 2.5 C 30,1.669 29.331,1 28.5,1 Z"/>
 <path style="opacity:0.2" d="M 19.277,12.445 19.547,11.433 C 19.851,10.336 20.137,9.0539 20.407,7.8897 H 20.475 C 20.762,9.0369 21.065,10.336 21.369,11.433 L 21.622,12.445 H 19.277 M 22.804,17 H 25.436 L 21.994,6 H 19.008 L 15.566,17 H 18.097 L 18.772,14.385 H 22.129 L 22.804,17"/>
 <path style="fill:#ffffff" d="M 19.277,11.445 19.547,10.433 C 19.851,9.3361 20.137,8.0539 20.407,6.8897 H 20.475 C 20.762,8.0369 21.065,9.336 21.369,10.433 L 21.622,11.445 H 19.277 M 22.804,16 H 25.436 L 21.994,5 H 19.008 L 15.566,16 H 18.097 L 18.772,13.385 H 22.129 L 22.804,16"/>
 <path style="opacity:0.1;fill:#ffffff" d="M 11,1 V 2 H 28.5 C 29.331,2 30,2.669 30,3.5 V 2.5 C 30,1.669 29.331,1 28.5,1 Z"/>
</svg>
